X:1
T:Ov'è condotto il mio amoroso stile?
T:Luca Marenzio
T:Ov'è condotto il mio amoroso stile?
C:Luca Marenzio
%%score [ 1 2 3 4 ]
L:1/8
Q:1/4=200
M:4/2
K:C
V:1 treble nm="Soprano" snm="S"
V:2 treble nm="Alto" snm="A"
V:3 treble-8 nm="Tenor" snm="T"
V:4 bass nm="Bass" snm="B"
V:1
 E16 | F12 E4 | D8 C4 c4- | c4 B4 A8 | ^G4 A8 G4 | A16- | A8 z4 G4 | A4 B4 c8 | B8 E8- | E8 G8- | %10
w: O-|v'è con-|dot- to~il mio~a-|* mo- ro-|so sti- *|le?|_ A|par- lar d'i-|ra, o-||
 G4 F4 E8 | D4 d8 c4- | c4 B8 A4- | A4 ^G4 A8 | z8 z4 F4- | F4 G4 A8 | _B8 A8 | z8 z4 G4 | %18
w: * con- dot-|to~il mio~a- mo-|* ro- so|_ sti- le?|A|_ par- lar|d'i- ra,|a|
 ^F6 F2 G4 E4 | D8 C8 | z4 G4 A6 E2 | F4 E4 G4 A4- | A2 A2 G4 d8 | G8 z4 G4 | c8 c8 | B8 z8 | %26
w: ra- gio- nar di|mor- te.|U son' i|ver- si~u son giun-|* te le ri-|me Che|gen- til|cor,|
 z8 z4 G4 | c8 c8 | B4 B4 A4 A4 | A8 G8 | G2 F2 E2 D2 C8 | D16- | D8 z8 | G4 G6 G2 G4 | %34
w: Che|gen- til|cor u- dia pen-|so- so~e|lie- * * * *|to?|_|O- v'è'l fa- vo-|
 G4 A4 ^F4 G4 | z16 | z8 z4 G4- | G4 c8 B4 | z4 d8 B4 | c8 d8 | G8 A4 A4- | A2 ^G2 =G4 A6 G2 | %42
w: leg- giar d'A- mor||le|_ not- ti?|Hor non|par- l'io|ne pen- so~al-|* tro che pian- *|
 F8 E8 | z4 A8 G4- | G4 ^F4 G8- | G8 z8 | z4 d8 c4- | c4 B4 c8 | z8 G8 | A4 A6 ^G2 =G4 | A16 | %51
w: * to,|Hor non|_ par- l'io|_|Hor non|_ par- l'io|ne|pen- so~al- tro che|pian-|
 E4 G8 A4 | B6 B2 B8 | E16 | E16 |] %55
w: to, ne pen-|so~al- tro che|pian-|to.|
V:2
 z8 A,8- | A,8 C8- | C4 B,4 A,8 | G,4 G8 F4 | E4 C4 B,8 | A,4 C4 D4 E4 | F8 E8 | z4 D4 E4 ^F4 | %8
w: O-|* v'è|_ con- dot-|to~il mio~a- mo-|ro- so sti-|le? _ _ _|_ _|A par- lar|
 G2 F2 E2 D2 C2 B,A, B,4 | C8 z8 | z4 C4 G8- | G4 A4 G4 E4 | F8 E8- | E8 C8 | D4 E4 E4 A4 | %15
w: d'i- * * * * * * *|ra,|il mio~a-|* mo- ro- so|sti- le?|_ A|par- lar d'i- ra,|
 z4 D4 ^C6 C2 | D12 A,4 | B,6 A,2 G,8 | A,8 E8 | G6 D2 F4 E4 | z4 E4 F6 C2 | D4 C4 D4 F4- | %22
w: a ra- gio-|nar di|mor- * *|te. U|son' i ver- si,|U son' i|ver- si~u son giun-|
 F2 C2 E4 F8- | F4 E2 D2 E8 | z4 C4 E4 F4 | G8 z8 | z16 | z4 C4 E4 F4 | G4 D4 F4 F4 | F8 E4 C2 D2 | %30
w: * te le ri-|* * * me|Che gen- til|cor,||Che gen- til|cor u- dia pen-|so- so~e lie- *|
 E2 F2 G8 ^F4 | G16 | z8 z4 D4 | D6 D2 D4 D4 | E4 ^C4 D4 B,4 | B,6 B,2 B,4 B,4 | E4 A,4 B,8 | %37
w: |to?|O-|v'è'l fa- vo- leg-|giar d'A- mor, O-|v'è'l fa- vo- leg-|giar d'A- mor|
 E12 G4- | G4 ^F4 z4 G4 | A4 E4 G4 D4 | E4 E6 D2 D4 | C4 B,4 z4 A,4- | A,4 A8 E4- | %43
w: le not-|* ti? Hor|non par- l'io ne|pen- so~al- tro che|pian- to, ne|_ pen- so~al-|
 E4 A,4 B,4 E4- | E4 D2 C2 B,8 | B,4 G4 F4 A4 | G4 z2 G,2 F,4 A,4 | G,8 z4 G4 | F8 E6 E2 | %49
w: * tro che pian-||to, Hor non par-|l'io Hor non par-|l'io ne|pen- so~al- tro|
 C4 D4 B,8 | E4 F8 E4 | G4 D4 E4 E4- | E2 ^D2 =D4 E4 E4 | z4 A,4 C8 | B,16 |] %55
w: che pian- to,|Hor non par-|l'io ne pen- so~al-|* tro che pian- to,|che pian-|to.|
V:3
 z16 | z16 | z16 | z16 | z16 | z8 A8- | A8 c8- | c4 B4 A8 | G8 g8- | g4 f4 e4 d4 | c12 B2 A2 | %11
w: |||||O-|* v'è|_ con- dot-|to~il mio~a-|* mo- ro- so|sti- * *|
 B4 A4 z4 G4 | A4 B4 c8 | B8 z4 A4- | A4 B4 c8 | d8 e8 | z16 | z4 d4 ^c6 c2 | d8 G4 c4- | %19
w: * le? A|par- lar d'i-|ra, a|_ par- lar|d'i- ra,||a ra- gio-|nar di mor-|
 c4 B4 z4 c4 | c6 B2 d4 A4 | z4 z2 A2 B4 c4 | d2 A2 c6 BA B4 | c16 | z16 | z4 G4 c8 | c8 B4 B4 | %27
w: * te. U|son' i ver- si,|u son giun-|te le ri- * * *|me||Che gen-|til cor u-|
 A4 A4 A8 | G4 B4 c4 c4 | d8 B4 e4- | e2 d2 c8 A4 | z4 B4 B6 B2 | B4 B4 c4 A4 | B16 | %34
w: dia pen- so-|so, u- dia pen-|so- so~e lie-|* * * to?|O- v'è'l fa-|vo- leg- giar d'A-|mor,|
 z8 z2 d2 d4- | d2 d2 d4 d4 e4 | ^c4 d8 d4 | c6 BA G8 | A8 z4 d4- | d4 c8 B4 | c6 B2 A8 | %41
w: O- v'è'l|_ fa- vo- leg- giar|d'A- mor le|not- * * *|ti? Hor|_ non par-|l'io _ _|
 z4 E4 e4 e4- | e2 d2 d4 ^c8 | ^c4 d8 B4 | c8 d8 | z4 c8 A4 | B8 c8 | z4 d8 c4- | c4 B4 c8 | %49
w: ne pen- so~al-|* tro che pian-|to, Hor non|par- l'io|Hor non|par- l'io|Hor non|_ par- l'io|
 z8 e8- | e4 d8 c4- | c4 B8 A4 | G4 ^F4 z4 B4 | c6 B2 A8 | ^G16 |] %55
w: ne|_ pen- so~al-|* tro che|pian- to, che|pian- * *|to.|
V:4
 z16 | z16 | z16 | z16 | E,16 | F,12 E,4 | D,8 C,8 | z16 | E,16 | C,12 B,,4 | A,,8 G,,4 G,4- | %11
w: ||||O-|v'è con-|dot- to,||O-|v'è con-|dot- to~il mio~a-|
 G,4 F,4 E,8 | D,8 E,8- | E,8 A,,4 F,4- | F,4 G,4 A,8 | _B,8 A,8 | z4 G,4 ^F,6 F,2 | G,8 E,8 | %18
w: * mo- ro-|so sti-|* le? A|_ par- lar|d'i- ra,|a ra- gio-|nar di|
 D,8 C,8 | z4 G,4 A,6 E,2 | F,4 E,4 z8 | z4 A,4 G,4 F,4- | F,2 F,2 E,4 D,8 | C,16 | z16 | %25
w: mor- te.|U son' i|ver- si,|u son giun-|* te le ri-|me||
 z8 z4 C,4 | E,4 F,4 G,8 | z16 | z4 G,4 F,4 F,4 | D,8 E,8 | C,6 B,,2 A,,8 | G,,4 G,4 G,6 G,2 | %32
w: Che|gen- til cor||u- dia pen-|so- so~e|lie- * *|to? O- v'è'l fa-|
 G,4 G,4 A,4 ^F,4 | G,16 | z8 z4 G,4 | G,6 G,2 G,4 G,4 | A,4 ^F,4 G,8 | C,8 E,8 | D,8 G,8 | %39
w: vo- leg- giar d'A-|mor,|O-|v'è'l fa- vo- leg-|giar d'A- mor|le not-|ti? Hor|
 F,4 A,4 G,8 | z4 C,4 F,8 | E,6 E,2 ^C,8 | D,8 A,,4 A,4- | A,4 ^F,4 G,8 | A,8 z4 G,4- | %45
w: non par- l'io|ne pen-|so~al- tro che|pian- to, Hor|_ non par-|l'io Hor|
 G,4 E,4 F,8 | G,8 z8 | z4 G,4 F,4 E,4 | D,8 z4 C,4 | F,8 E,6 E,2 | ^C,4 D,8 A,,4 | z4 G,,4 C,8 | %52
w: _ non par-|l'io|Hor non par-|l'io ne|pen- so~al- tro|che pian- to,|ne pen-|
 B,,6 B,,2 ^G,,8 | A,,16 | E,16 |] %55
w: so~al- tro che|pian-|to.|

